public/avatar/item0/2.svg

<svg xmlns:xlink="http://www.w3.org/1999/xlink" height="58.65" width="49.15" xmlns="http://www.w3.org/2000/svg"><use height="11.15" transform="translate(11.1 24.65)" width="26" xlink:href="#a"/><defs><g id="a" fill-rule="evenodd"><path d="M-13 9.2q.1-1.45.65-2.65h24.5l.15.35q.6 1.3.7 2.9l-1.1-1.5q-.65-.6-1.55-.65L8.6 7.6H6.85l-1.7.05-1.65.15-1.75.2-1.65.25h-1.7L-3.3 8-5 7.85h-3.25l-1.65.1-1.6.35q-.9.2-1.5.9m26 1.15q0 1.7-.6 3.15l-2.6.5H6.6l-3.2-.5-3.45-1-.05.05-3.45.95-3.45.35-3.15-.55q-1.55-.45-2.65-1.35l-.2-1.7 1.6.65-.1-.25q-.35-.95.55-1.5.6-.5 1.35-.5 2.65.3 1.85 2.6l-.2.3h1.6L-6.4 11l.25.35q.35.3.65 0 .75-.75-.05-1.2l-.45.2-.3.2q.2-.6.8-.65 1.65.05 1.4 1.35 2.1-.55 4-1.75l1.6.7.45-.55q.4-.45.95-.45 1.6.5.85 1.7l5.95.5 3.3-1.05m-3 6.1q-1.6 1.2-3.65 1.25-2.75-.05-4.7-2.2l3.2-.2 3.15.3q1.15.2 2 .85M-1.8 15.3q-1.9 2-4.55 2-2.05 0-3.7-1.2l2.95-.8 3.4-.3 1.9.3m4.05-5.55q-.6.3-.15.85.3.45.7.1.85-.7-.05-1.15l-.5.2M-11.4 10.9q.15.65 1.4.85.65.05 1-.35 1.35-1.65-.8-2.3l-.25.05q-.85.05-1.2.75l-.15 1" fill="#3a5887" transform="translate(13 -6.55)"/><path d="M-13 9.2q.6-.7 1.5-.9l1.6-.35 1.65-.1H-5l1.7.15 1.7.25H.1L1.75 8l1.75-.2 1.65-.15 1.7-.05H8.6l1.75.05q.9.05 1.55.65L13 9.8v.55L9.7 11.4l-5.95-.5q.75-1.2-.85-1.7-.55 0-.95.45l-.45.55-1.6-.7q-1.9 1.2-4 1.75.25-1.3-1.4-1.35-.6.05-.8.65l-.1.45.05.55h-1.6l.2-.3q.8-2.3-1.85-2.6-.75 0-1.35.5-.9.55-.55 1.5l.1.25-1.6-.65V9.2" fill="#233750" transform="translate(13 -6.55)"/><path d="m2.25 9.75.5-.2q.9.45.05 1.15-.4.35-.7-.1-.45-.55.15-.85M-11.4 10.9l.15-1q.35-.7 1.2-.75l.25-.05q2.15.65.8 2.3-.35.4-1 .35-1.25-.2-1.4-.85m5 .1.1-.45.3-.2.45-.2q.8.45.05 1.2-.3.3-.65 0L-6.4 11" fill="#8cb3ff" transform="translate(13 -6.55)"/><path d="m12.4 13.5-1.35 2-1.05.95q-.85-.65-2-.85l-3.15-.3-3.2.2H1.6q-1.2-1.35-1.65-3l3.45 1 3.2.5h3.2l2.6-.5m-12.5-.95q-.5 1.4-1.55 2.55l-.15.2-1.9-.3-3.4.3-2.95.8-1.05-1q-1.25-1.4-1.7-3.15 1.1.9 2.65 1.35l3.15.55 3.45-.35 3.45-.95" fill="#5280c4" transform="translate(13 -6.55)"/></g></defs></svg>

<?xml version="1.0" encoding="UTF-8" standalone="no"?>
<svg xmlns:xlink="http://www.w3.org/1999/xlink" height="58.65px" width="49.15px" xmlns="http://www.w3.org/2000/svg">
  <g transform="matrix(1.0, 0.0, 0.0, 1.0, 24.1, 18.1)">
    <use height="11.15" transform="matrix(1.0, 0.0, 0.0, 1.0, -13.0, 6.55)" width="26.0" xlink:href="#shape0"/>
  </g>
  <defs>
    <g id="shape0" transform="matrix(1.0, 0.0, 0.0, 1.0, 13.0, -6.55)">
      <path d="M-13.0 9.2 Q-12.9 7.75 -12.35 6.55 L12.15 6.55 12.3 6.9 Q12.9 8.2 13.0 9.8 L11.9 8.3 Q11.25 7.7 10.35 7.65 L8.6 7.6 6.85 7.6 5.15 7.65 3.5 7.8 1.75 8.0 0.1 8.25 -1.6 8.25 -3.3 8.0 -5.0 7.85 -6.5 7.85 -8.25 7.85 -9.9 7.95 -11.5 8.3 Q-12.4 8.5 -13.0 9.2 M13.0 10.35 Q13.0 12.05 12.4 13.5 L9.8 14.0 6.6 14.0 3.4 13.5 -0.05 12.5 -0.1 12.55 -3.55 13.5 -7.0 13.85 -10.15 13.3 Q-11.7 12.85 -12.8 11.95 L-13.0 10.25 -11.4 10.9 -11.5 10.65 Q-11.85 9.7 -10.95 9.15 -10.35 8.65 -9.6 8.65 -6.95 8.95 -7.75 11.25 L-7.95 11.55 -6.35 11.55 -6.4 11.0 -6.15 11.35 Q-5.8 11.65 -5.5 11.35 -4.75 10.6 -5.55 10.15 L-6.0 10.35 -6.3 10.55 Q-6.1 9.95 -5.5 9.9 -3.85 9.95 -4.1 11.25 -2.0 10.7 -0.1 9.5 L1.5 10.2 1.95 9.65 Q2.35 9.2 2.9 9.2 4.5 9.7 3.75 10.9 L9.7 11.4 13.0 10.35 M10.0 16.45 Q8.4 17.65 6.35 17.7 3.6 17.65 1.65 15.5 L4.85 15.3 8.0 15.6 Q9.15 15.8 10.0 16.45 M-1.8 15.3 Q-3.7 17.3 -6.35 17.3 -8.4 17.3 -10.05 16.1 L-7.1 15.3 -3.7 15.0 -1.8 15.3 M2.25 9.75 Q1.65 10.05 2.1 10.6 2.4 11.05 2.8 10.7 3.65 10.0 2.75 9.55 L2.25 9.75 M-11.4 10.9 Q-11.25 11.55 -10.0 11.75 -9.35 11.8 -9.0 11.4 -7.65 9.75 -9.8 9.1 L-10.05 9.15 Q-10.9 9.2 -11.25 9.9 L-11.4 10.9" fill="#3a5887" fill-rule="evenodd" stroke="none"/>
      <path d="M-13.0 9.2 Q-12.4 8.5 -11.5 8.3 L-9.9 7.95 -8.25 7.85 -6.5 7.85 -5.0 7.85 -3.3 8.0 -1.6 8.25 0.1 8.25 1.75 8.0 3.5 7.8 5.15 7.65 6.85 7.6 8.6 7.6 10.35 7.65 Q11.25 7.7 11.9 8.3 L13.0 9.8 13.0 10.25 13.0 10.35 9.7 11.4 3.75 10.9 Q4.5 9.7 2.9 9.2 2.35 9.2 1.95 9.65 L1.5 10.2 -0.1 9.5 Q-2.0 10.7 -4.1 11.25 -3.85 9.95 -5.5 9.9 -6.1 9.95 -6.3 10.55 L-6.4 11.0 -6.35 11.55 -7.95 11.55 -7.75 11.25 Q-6.95 8.95 -9.6 8.65 -10.35 8.65 -10.95 9.15 -11.85 9.7 -11.5 10.65 L-11.4 10.9 -13.0 10.25 -13.0 9.9 -13.0 9.2" fill="#233750" fill-rule="evenodd" stroke="none"/>
      <path d="M2.25 9.75 L2.75 9.55 Q3.65 10.0 2.8 10.7 2.4 11.05 2.1 10.6 1.65 10.05 2.25 9.75 M-11.4 10.9 L-11.25 9.9 Q-10.9 9.2 -10.05 9.15 L-9.8 9.1 Q-7.65 9.75 -9.0 11.4 -9.35 11.8 -10.0 11.75 -11.25 11.55 -11.4 10.9 M-6.4 11.0 L-6.3 10.55 -6.0 10.35 -5.55 10.15 Q-4.75 10.6 -5.5 11.35 -5.8 11.65 -6.15 11.35 L-6.4 11.0" fill="#8cb3ff" fill-rule="evenodd" stroke="none"/>
      <path d="M12.4 13.5 L11.05 15.5 10.0 16.45 Q9.15 15.8 8.0 15.6 L4.85 15.3 1.65 15.5 1.6 15.5 Q0.4 14.15 -0.05 12.5 L3.4 13.5 6.6 14.0 9.8 14.0 12.4 13.5 M-0.1 12.55 Q-0.6 13.95 -1.65 15.1 L-1.8 15.3 -3.7 15.0 -7.1 15.3 -10.05 16.1 -11.1 15.1 Q-12.35 13.7 -12.8 11.95 -11.7 12.85 -10.15 13.3 L-7.0 13.85 -3.55 13.5 -0.1 12.55" fill="#5280c4" fill-rule="evenodd" stroke="none"/>
    </g>
  </defs>
</svg>
